img/instagram-icon.svg

<svg width="22" height="22" viewBox="0 0 22 22" fill="none" xmlns="http://www.w3.org/2000/svg">
<path d="M1.38147 1.47066C-0.27803 3.19439 0.0616142 5.02548 0.0616142 10.5883C0.0616142 15.2078 -0.744381 19.8387 3.47389 20.9289C4.79111 21.2677 16.4622 21.2677 17.7777 20.9272C19.534 20.474 20.9629 19.0494 21.1583 16.5655C21.1855 16.2188 21.1855 4.96389 21.1574 4.61016C20.9497 1.96428 19.321 0.439405 17.1749 0.130557C16.6831 0.059285 16.5845 0.0381673 14.0609 0.0337677C5.10964 0.0381673 3.14745 -0.360431 1.38147 1.47066Z" fill="url(#paint0_linear_218:302)"/>
<path d="M10.6187 2.79586C7.42379 2.79586 4.38987 2.51165 3.23104 5.48573C2.75237 6.71408 2.82188 8.30935 2.82188 10.5936C2.82188 12.598 2.75765 14.4819 3.23104 15.7006C4.38723 18.6764 7.44579 18.3913 10.617 18.3913C13.6764 18.3913 16.8309 18.7099 18.0038 15.7006C18.4833 14.4599 18.413 12.8884 18.413 10.5936C18.413 7.54735 18.581 5.58076 17.1037 4.10428C15.6078 2.60843 13.5849 2.79586 10.6152 2.79586H10.6187ZM9.92009 4.20107C16.5845 4.19051 17.4327 3.44963 16.9646 13.7419C16.7983 17.3821 14.0266 16.9826 10.6196 16.9826C4.40747 16.9826 4.22885 16.8049 4.22885 10.5901C4.22885 4.30314 4.7216 4.20459 9.92009 4.19931V4.20107ZM14.7807 5.49541C14.2642 5.49541 13.8454 5.91425 13.8454 6.43075C13.8454 6.94726 14.2642 7.36609 14.7807 7.36609C15.2972 7.36609 15.716 6.94726 15.716 6.43075C15.716 5.91425 15.2972 5.49541 14.7807 5.49541ZM10.6187 6.58913C8.40753 6.58913 6.61516 8.38238 6.61516 10.5936C6.61516 12.8048 8.40753 14.5972 10.6187 14.5972C12.8299 14.5972 14.6214 12.8048 14.6214 10.5936C14.6214 8.38238 12.8299 6.58913 10.6187 6.58913ZM10.6187 7.99435C14.0548 7.99435 14.0592 13.1928 10.6187 13.1928C7.18358 13.1928 7.1783 7.99435 10.6187 7.99435Z" fill="white"/>
<defs>
<linearGradient id="paint0_linear_218:302" x1="1.42197" y1="19.8027" x2="21.0487" y2="2.81601" gradientUnits="userSpaceOnUse">
<stop stop-color="#FFDD55"/>
<stop offset="0.5" stop-color="#FF543E"/>
<stop offset="1" stop-color="#C837AB"/>
</linearGradient>
</defs>
</svg>

<svg width="22" height="22" fill="none" xmlns="http://www.w3.org/2000/svg"><path d="M1.381 1.47C-.278 3.195.061 5.026.061 10.589c0 4.62-.805 9.25 3.413 10.34 1.317.34 12.988.34 14.304 0 1.756-.454 3.185-1.879 3.38-4.363.027-.346.027-11.601 0-11.955C20.95 1.964 19.32.44 17.174.13c-.492-.07-.59-.092-3.114-.096C5.11.038 3.147-.36 1.38 1.47z" fill="url(#paint0_linear_218:302)"/><path d="M10.619 2.796c-3.195 0-6.23-.284-7.388 2.69-.479 1.228-.41 2.823-.41 5.108 0 2.004-.063 3.888.41 5.107 1.156 2.975 4.215 2.69 7.386 2.69 3.06 0 6.214.319 7.387-2.69.48-1.241.409-2.813.409-5.107 0-3.047.168-5.013-1.31-6.49-1.495-1.496-3.518-1.308-6.488-1.308h.004zM9.92 4.2c6.664-.01 7.513-.751 7.045 9.54-.167 3.641-2.938 3.242-6.345 3.242-6.213 0-6.391-.178-6.391-6.393 0-6.287.493-6.385 5.691-6.39V4.2zm4.86 1.294a.935.935 0 100 1.871.935.935 0 000-1.87zM10.62 6.59a4.004 4.004 0 10.001 8.009 4.004 4.004 0 00-.001-8.009zm0 1.405c3.436 0 3.44 5.199 0 5.199-3.435 0-3.44-5.199 0-5.199z" fill="#fff"/><defs><linearGradient id="paint0_linear_218:302" x1="1.422" y1="19.803" x2="21.049" y2="2.816" gradientUnits="userSpaceOnUse"><stop stop-color="#FD5"/><stop offset=".5" stop-color="#FF543E"/><stop offset="1" stop-color="#C837AB"/></linearGradient></defs></svg>
